X:67
T: Die Koenigskinder
N: Q0020J
O: Mitteleuropa, Deutschland (BRD) , Schleswig Holstein,
R: Ballade, Liebe, Trennung, Tod
M: 6/8
L: 1/16
K: G
_B2 | A3GG2G2A2_B2 | A6G4
G2 | A3_Bc2d3cB2 | A6z4
G2 | A4G2A2_B2c2 | d4_e2d4
c2 | _B2A2G2A3BA2 | G6z4

